ligands/hexadentate/hexaaza-18-crown-6.svg

<svg height="85" viewBox="0 0 80 85" width="80" xmlns="http://www.w3.org/2000/svg"><text font-family="Helvetica" font-size="240" font-weight="bold" transform="matrix(.05 0 0 .05 10.695 35.98)">NH</text><text font-family="Helvetica" font-size="240" font-weight="bold" transform="matrix(.05 0 0 .05 35.585 11.511)">H</text><text font-family="Helvetica" font-size="240" font-weight="bold" transform="matrix(.05 0 0 .05 35.585 21.545)">N</text><path d="m4733.89 8182.24 12.01 6.88.39 165.73-12 .03z" transform="matrix(.05 0 0 .05 -222 -392)"/><path d="m5124.79 8112.24-5.99 10.4-130.31-75.01-.04-13.87z" transform="matrix(.05 0 0 .05 -222 -392)"/><path d="m4745.9 8189.12-12.01-6.88 254.56-148.48.04 13.87z" transform="matrix(.05 0 0 .05 -222 -392)"/><text font-family="Helvetica" font-size="240" font-weight="bold" transform="matrix(.05 0 0 .05 60.541 35.865)">NH</text><path d="m5743.2 8351.54-12 .03-.38-164.72 11.98-6.95z" transform="matrix(.05 0 0 .05 -222 -392)"/><path d="m5742.8 8179.9-11.98 6.95-243.87-140.37-.04-13.87z" transform="matrix(.05 0 0 .05 -222 -392)"/><path d="m5358.97 8121.13-6.05-10.37 133.99-78.15.04 13.87z" transform="matrix(.05 0 0 .05 -222 -392)"/><text font-family="Helvetica" font-size="240" font-weight="bold" transform="matrix(.05 0 0 .05 60.607 54.649)">H</text><text font-family="Helvetica" font-size="240" font-weight="bold" transform="matrix(.05 0 0 .05 60.607 64.683)">N</text><path d="m5860.2 8983.6-6.03-10.37 127.84-74.38 12.02 6.9z" transform="matrix(.05 0 0 .05 -222 -392)"/><path d="m5994.03 8905.75-12.02-6.9-.65-281.25 11.98-6.96z" transform="matrix(.05 0 0 .05 -222 -392)"/><path d="m5968.6 8610.29 5.97-10.41 15.77 9.03-5.97 10.42z" transform="matrix(.05 0 0 .05 -222 -392)"/><text font-family="Helvetica" font-size="240" font-weight="bold" transform="matrix(.05 0 0 .05 10.762 54.733)">H</text><text font-family="Helvetica" font-size="240" font-weight="bold" transform="matrix(.05 0 0 .05 10.762 64.766)">N</text><path d="m4621.24 8535.58 6.02 10.38-129.27 75.07-12.02-6.9z" transform="matrix(.05 0 0 .05 -222 -392)"/><path d="m4485.97 8614.13 12.02 6.9.65 281.25-11.98 6.95z" transform="matrix(.05 0 0 .05 -222 -392)"/><path d="m4486.66 8909.23 11.98-6.95 130.84 75.17-5.98 10.41z" transform="matrix(.05 0 0 .05 -222 -392)"/><text font-family="Helvetica" font-size="240" font-weight="bold" transform="matrix(.05 0 0 .05 35.654 79.054)">NH</text><g transform="matrix(.05 0 0 .05 -222 -392)"><path d="m4736.16 9166.08 12-.03.39 166.34-11.99 6.96z"/><path d="m4736.56 9339.35 11.99-6.96 242.6 139.12.03 13.85z"/><path d="m4991.18 9485.36-.03-13.85 129.96-75.13 6.01 10.38z"/><path d="m5467.5 9474.15 6.04-10.37 19.74 11.48-6.04 10.37z"/><path d="m5490.26 9487.39v-13.88l243.21-141.49 12.01 6.89z"/><path d="m5733.08 9165.41 12-.03.4 173.53-12.01-6.89z"/><path d="m4973.48 8613.88 5.97-10.4 254.52 146.14 6.03 10.38-12 .03z"/><path d="m5228 8760.03 12-.03-6 10.42-370.67 215.03-6.03-10.38z"/><path d="m5234 8770.42 6-10.42 6 10.38-.2 444.98-12-.01z"/><path d="m5246 8770.38-6-10.38 11.98-.02 374.46 215.66-5.99 10.4z"/><path d="m5251.98 8759.98-11.98.02 5.97-10.41 372.19-216.27 6.03 10.37z"/><path d="m5245.97 8749.59-5.97 10.41-6.03-10.38-1.28-446.97 12-.03z"/><path d="m5019.16 8760a220.838 220.838 0 1 0 441.68 0 220.838 220.838 0 1 0 -441.68 0z" fill="#fa666a"/></g></svg>

<?xml version="1.0" standalone="no" ?>
<!DOCTYPE svg PUBLIC "-//W3C//DTD SVG 1.1//EN" "http://www.w3.org/Graphics/SVG/1.1/DTD/svg11.dtd">
<svg width="80px" height="85px" viewBox="0 0 80 85" style="background-color: #ffffff00" xmlns="http://www.w3.org/2000/svg" xmlns:xlink="http://www.w3.org/1999/xlink" version="1.1" >
<text x="0" y="0" stroke="none" fill="#000000" transform="matrix(0.05 0 0 0.05 10.695 35.9797)" font-style="normal" font-weight="bold" font-size="240px" font-family="Helvetica" >
NH</text>
<text x="0" y="0" stroke="none" fill="#000000" transform="matrix(0.05 0 0 0.05 35.5847 11.5114)" font-style="normal" font-weight="bold" font-size="240px" font-family="Helvetica" >
H</text>
<text x="0" y="0" stroke="none" fill="#000000" transform="matrix(0.05 0 0 0.05 35.5847 21.5448)" font-style="normal" font-weight="bold" font-size="240px" font-family="Helvetica" >
N</text>
<path stroke="none" fill="#000000" transform="matrix(0.05 0 0 0.05 -222 -392)" d="M 4733.89,8182.24 L 4745.9,8189.12 L 4746.29,8354.85 L 4734.29,8354.88 L 4733.89,8182.24 Z " />
<path stroke="none" fill="#000000" transform="matrix(0.05 0 0 0.05 -222 -392)" d="M 5124.79,8112.24 L 5118.8,8122.64 L 4988.49,8047.63 L 4988.45,8033.76 L 5124.79,8112.24 Z " />
<path stroke="none" fill="#000000" transform="matrix(0.05 0 0 0.05 -222 -392)" d="M 4745.9,8189.12 L 4733.89,8182.24 L 4988.45,8033.76 L 4988.49,8047.63 L 4745.9,8189.12 Z " />
<text x="0" y="0" stroke="none" fill="#000000" transform="matrix(0.05 0 0 0.05 60.5408 35.8645)" font-style="normal" font-weight="bold" font-size="240px" font-family="Helvetica" >
NH</text>
<path stroke="none" fill="#000000" transform="matrix(0.05 0 0 0.05 -222 -392)" d="M 5743.2,8351.54 L 5731.2,8351.57 L 5730.82,8186.85 L 5742.8,8179.9 L 5743.2,8351.54 Z " />
<path stroke="none" fill="#000000" transform="matrix(0.05 0 0 0.05 -222 -392)" d="M 5742.8,8179.9 L 5730.82,8186.85 L 5486.95,8046.48 L 5486.91,8032.61 L 5742.8,8179.9 Z " />
<path stroke="none" fill="#000000" transform="matrix(0.05 0 0 0.05 -222 -392)" d="M 5358.97,8121.13 L 5352.92,8110.76 L 5486.91,8032.61 L 5486.95,8046.48 L 5358.97,8121.13 Z " />
<text x="0" y="0" stroke="none" fill="#000000" transform="matrix(0.05 0 0 0.05 60.6074 54.6492)" font-style="normal" font-weight="bold" font-size="240px" font-family="Helvetica" >
H</text>
<text x="0" y="0" stroke="none" fill="#000000" transform="matrix(0.05 0 0 0.05 60.6074 64.6826)" font-style="normal" font-weight="bold" font-size="240px" font-family="Helvetica" >
N</text>
<path stroke="none" fill="#000000" transform="matrix(0.05 0 0 0.05 -222 -392)" d="M 5860.2,8983.6 L 5854.17,8973.23 L 5982.01,8898.85 L 5994.03,8905.75 L 5860.2,8983.6 Z " />
<path stroke="none" fill="#000000" transform="matrix(0.05 0 0 0.05 -222 -392)" d="M 5994.03,8905.75 L 5982.01,8898.85 L 5981.36,8617.6 L 5993.34,8610.64 L 5994.03,8905.75 Z " />
<path stroke="none" fill="#000000" transform="matrix(0.05 0 0 0.05 -222 -392)" d="M 5968.6,8610.29 L 5974.57,8599.88 L 5990.34,8608.91 L 5984.37,8619.33 L 5968.6,8610.29 Z " />
<text x="0" y="0" stroke="none" fill="#000000" transform="matrix(0.05 0 0 0.05 10.7616 54.7328)" font-style="normal" font-weight="bold" font-size="240px" font-family="Helvetica" >
H</text>
<text x="0" y="0" stroke="none" fill="#000000" transform="matrix(0.05 0 0 0.05 10.7616 64.7661)" font-style="normal" font-weight="bold" font-size="240px" font-family="Helvetica" >
N</text>
<path stroke="none" fill="#000000" transform="matrix(0.05 0 0 0.05 -222 -392)" d="M 4621.24,8535.58 L 4627.26,8545.96 L 4497.99,8621.03 L 4485.97,8614.13 L 4621.24,8535.58 Z " />
<path stroke="none" fill="#000000" transform="matrix(0.05 0 0 0.05 -222 -392)" d="M 4485.97,8614.13 L 4497.99,8621.03 L 4498.64,8902.28 L 4486.66,8909.23 L 4485.97,8614.13 Z " />
<path stroke="none" fill="#000000" transform="matrix(0.05 0 0 0.05 -222 -392)" d="M 4486.66,8909.23 L 4498.64,8902.28 L 4629.48,8977.45 L 4623.5,8987.86 L 4486.66,8909.23 Z " />
<text x="0" y="0" stroke="none" fill="#000000" transform="matrix(0.05 0 0 0.05 35.6543 79.0543)" font-style="normal" font-weight="bold" font-size="240px" font-family="Helvetica" >
NH</text>
<path stroke="none" fill="#000000" transform="matrix(0.05 0 0 0.05 -222 -392)" d="M 4736.16,9166.08 L 4748.16,9166.05 L 4748.55,9332.39 L 4736.56,9339.35 L 4736.16,9166.08 Z " />
<path stroke="none" fill="#000000" transform="matrix(0.05 0 0 0.05 -222 -392)" d="M 4736.56,9339.35 L 4748.55,9332.39 L 4991.15,9471.51 L 4991.18,9485.36 L 4736.56,9339.35 Z " />
<path stroke="none" fill="#000000" transform="matrix(0.05 0 0 0.05 -222 -392)" d="M 4991.18,9485.36 L 4991.15,9471.51 L 5121.11,9396.38 L 5127.12,9406.76 L 4991.18,9485.36 Z " />
<path stroke="none" fill="#000000" transform="matrix(0.05 0 0 0.05 -222 -392)" d="M 5467.5,9474.15 L 5473.54,9463.78 L 5493.28,9475.26 L 5487.24,9485.63 L 5467.5,9474.15 Z " />
<path stroke="none" fill="#000000" transform="matrix(0.05 0 0 0.05 -222 -392)" d="M 5490.26,9487.39 L 5490.26,9473.51 L 5733.47,9332.02 L 5745.48,9338.91 L 5490.26,9487.39 Z " />
<path stroke="none" fill="#000000" transform="matrix(0.05 0 0 0.05 -222 -392)" d="M 5733.08,9165.41 L 5745.08,9165.38 L 5745.48,9338.91 L 5733.47,9332.02 L 5733.08,9165.41 Z " />
<path stroke="none" fill="#000000" transform="matrix(0.05 0 0 0.05 -222 -392)" d="M 4973.48,8613.88 L 4979.45,8603.48 L 5233.97,8749.62 L 5240,8760 L 5228,8760.03 L 4973.48,8613.88 Z " />
<path stroke="none" fill="#000000" transform="matrix(0.05 0 0 0.05 -222 -392)" d="M 5228,8760.03 L 5240,8760 L 5234,8770.42 L 4863.33,8985.45 L 4857.3,8975.07 L 5228,8760.03 Z " />
<path stroke="none" fill="#000000" transform="matrix(0.05 0 0 0.05 -222 -392)" d="M 5234,8770.42 L 5240,8760 L 5246,8770.38 L 5245.8,9215.36 L 5233.8,9215.35 L 5234,8770.42 Z " />
<path stroke="none" fill="#000000" transform="matrix(0.05 0 0 0.05 -222 -392)" d="M 5246,8770.38 L 5240,8760 L 5251.98,8759.98 L 5626.44,8975.64 L 5620.45,8986.04 L 5246,8770.38 Z " />
<path stroke="none" fill="#000000" transform="matrix(0.05 0 0 0.05 -222 -392)" d="M 5251.98,8759.98 L 5240,8760 L 5245.97,8749.59 L 5618.16,8533.32 L 5624.19,8543.69 L 5251.98,8759.98 Z " />
<path stroke="none" fill="#000000" transform="matrix(0.05 0 0 0.05 -222 -392)" d="M 5245.97,8749.59 L 5240,8760 L 5233.97,8749.62 L 5232.69,8302.65 L 5244.69,8302.62 L 5245.97,8749.59 Z " />
<path stroke="none" fill="#fa666a" transform="matrix(0.05 0 0 0.05 -222 -392)" d="M 5019.16,8760 A 220.838,220.838 0 1 0 5460.84,8760 A 220.838,220.838 0 1 0 5019.16,8760 Z " />
</svg>
